X: 1
T: Ciocarlanul
O: Romania
Z: 2006 John Chambers <jc@trillian.mit.edu>
S: handwritten MS
M: 4/4
L: 1/8
K: C
|: "G7"g2gf "C"e2c2 | "G7"g2gf "C"e4 \
|  "G7"g2gf "C"ecgf |1 "C"ec"G"dB "C"cdef :|2 "C"ec"G"dB "C"c2"E7"B2 ||
|: "Am"c2de "Dm"fedB | "Am"cA"E7"B^G "Am"ABcd \
|  "Am"e2de "Dm"fedB | "Am"cA"E7"B^G "Am"A4 :|
%%sep 1 1 10cm
